X: 10950
T: Drummond Lasses, The
R: reel
M: 4/4
K: Gmajor
gfed Bdef|gedg e~a3|gfed Bded|BGAG E ~G3|
gfed Bdef|gedg e~a3|gaeg degd|BGAG EGAE||
~G3B dBBA|GBAG EGAE|G2BG dGBd|cABG EGAE|
~G3B dBBA|GBAG EGAE|G2BG dGBd|cABG E ~G3||

